static/adopters/light/tieriv.svg

<svg width="589" height="147" viewBox="0 0 589 147" fill="none" xmlns="http://www.w3.org/2000/svg">
<g clip-path="url(#clip0_1_300)">
<path d="M49.59 40.48H42.35C38.3718 40.48 34.5565 42.0604 31.7434 44.8734C28.9304 47.6865 27.35 51.5018 27.35 55.48V117.89C16.0413 106.518 9.4146 91.3137 8.78169 75.2881C8.14879 59.2625 13.5558 43.5834 23.9325 31.3545C34.3091 19.1257 48.8989 11.2384 64.8138 9.25421C80.7286 7.26998 96.8084 11.3334 109.87 20.64L112.81 11.7C104.106 6.09977 94.3125 2.41087 84.0768 0.877183C73.8411 -0.656501 63.3965 -2.93255e-05 53.4334 2.8032C43.4703 5.60642 34.2157 10.4925 26.2814 17.1385C18.3472 23.7845 11.914 32.039 7.40725 41.3562C2.90049 50.6734 0.422777 60.8412 0.137932 71.1872C-0.146913 81.5332 1.7676 91.8219 5.75488 101.373C9.74217 110.924 15.7114 119.52 23.268 126.592C30.8245 133.665 39.7963 139.053 49.59 142.4V40.48Z" fill="#E1C1B7"/>
<path d="M116.47 14.24L113.47 23.37L90.2801 93.9L71.8201 40.48H49.8201L73.3601 109.38H96.5701C99.7233 109.383 102.797 108.393 105.356 106.549C107.914 104.705 109.826 102.102 110.82 99.11L129.58 42.77C135.635 53.9976 138.201 66.7773 136.947 79.472C135.694 92.1666 130.679 104.198 122.545 114.025C114.412 123.852 103.529 131.026 91.2923 134.629C79.0554 138.233 66.0214 138.101 53.8601 134.25V143.71C70.3383 148.222 87.8764 146.823 103.431 139.755C118.985 132.686 131.573 120.395 139.011 105.014C146.449 89.6334 148.267 72.1338 144.15 55.5524C140.032 38.9711 130.239 24.3547 116.47 14.24V14.24Z" fill="#E1C1B7"/>
<path d="M515.14 33.5901V110.59H500.14V43.7701C500.14 41.0702 501.213 38.4809 503.122 36.5717C505.031 34.6626 507.62 33.5901 510.32 33.5901H515.14Z" fill="#E1C1B7"/>
<path d="M531.52 33.5901L552.06 85.2801L572.6 33.5901H589L556.46 110.59H547.46L515.15 33.5901H531.52Z" fill="#E1C1B7"/>
<path d="M208.52 46.5101V110.51H193.52V46.5101H176.21V33.5901H225.82V46.5101H208.52Z" fill="#E1C1B7"/>
<path d="M273.37 33.5901V110.59H258.37V33.5901H273.37Z" fill="#E1C1B7"/>
<path d="M356.68 46.51H329V63.7001H355.54V76.63H329V97.6301H356.69V110.55H314V33.55H356.69L356.68 46.51Z" fill="#E1C1B7"/>
<path d="M416.57 33.59C427.19 33.59 432.57 36.3601 436.19 39.3601C442.07 44.3601 443.8 50.9 443.8 56.66C443.8 64.16 440.8 70.74 434.8 74.78C432.265 76.4864 429.394 77.6287 426.38 78.13L450.38 110.55H431.69L411.15 79.63H409.3V110.55H394.3V33.55L416.57 33.59ZM409.3 69H413.57C416.46 69 428.34 68.65 428.34 57.35C428.34 46.05 416.57 45.82 413.8 45.82H409.3V69Z" fill="#E1C1B7"/>
</g>
<defs>
<clipPath id="clip0_1_300">
<rect width="588.98" height="146.31" fill="white"/>
</clipPath>
</defs>
</svg>

<svg xmlns="http://www.w3.org/2000/svg" viewBox="0 0 588.98 146.31"><defs><style>.cls-1{fill:#1e3e48;}</style></defs><g id="Layer_2" data-name="Layer 2"><g id="Layer_2-2" data-name="Layer 2"><path class="cls-1" d="M49.59,40.48H42.35a15,15,0,0,0-15,15v62.41a64,64,0,0,1,82.52-97.25l2.94-8.94A73.13,73.13,0,1,0,49.59,142.4Z"/><path class="cls-1" d="M116.47,14.24l-3,9.13,0,0L90.28,93.9,71.82,40.48h-22l23.54,68.9H96.57a15,15,0,0,0,14.25-10.27l18.76-56.34a64.06,64.06,0,0,1-75.72,91.48v9.46A73.13,73.13,0,0,0,116.47,14.24Z"/><path class="cls-1" d="M515.14,33.59v77h-15V43.77a10.18,10.18,0,0,1,10.18-10.18Z"/><path class="cls-1" d="M531.52,33.59l20.54,51.69L572.6,33.59H589l-32.54,77h-9l-32.31-77Z"/><path class="cls-1" d="M208.52,46.51v64h-15v-64H176.21V33.59h49.61V46.51Z"/><path class="cls-1" d="M273.37,33.59v77h-15v-77Z"/><path class="cls-1" d="M356.68,46.51H329V63.7h26.54V76.63H329v21h27.69v12.92H314v-77h42.69Z"/><path class="cls-1" d="M416.57,33.59c10.62,0,16,2.77,19.62,5.77,5.88,5,7.61,11.54,7.61,17.3,0,7.5-3,14.08-9,18.12a21.35,21.35,0,0,1-8.42,3.35l24,32.42H431.69L411.15,79.63H409.3v30.92h-15v-77ZM409.3,69h4.27c2.89,0,14.77-.35,14.77-11.65S416.57,45.82,413.8,45.82h-4.5Z"/></g></g></svg>
